!!!COM: Beethoven, Ludwig van
!!!CDT: 1770///-1827///
!!!ODT: 1810///-1811///
!!!OTL: String Quartet No. 11 in F Minor, Op. 95 (Serioso)
!!!OPS: Op. 95
!!!OMV: Mvmt. 3
!!!OMD: Allegro assai vivace ma serioso
!!!PDT: 1816///
!!!PPP: Vienna
!!!ODE: Nik Zmeskall von Domanovetz gewidmet
!!!MPD: 1814/05//
**kern	**dynam	**kern	**dynam	**kern	**dynam	**kern	**dynam
*staff4	*staff4	*staff3	*staff3	*staff2	*staff2	*staff1	*staff1
*Icello	*Icello	*Iviola	*Iviola	*Ivioln	*Ivioln	*Ivioln	*Ivioln
*>[A,A1,A,A2,B]	*>[A,A1,A,A2,B]	*>[A,A1,A,A2,B]	*>[A,A1,A,A2,B]	*>[A,A1,A,A2,B]	*>[A,A1,A,A2,B]	*>[A,A1,A,A2,B]	*>[A,A1,A,A2,B]
*>norep[A,A2,B]	*>norep[A,A2,B]	*>norep[A,A2,B]	*>norep[A,A2,B]	*>norep[A,A2,B]	*>norep[A,A2,B]	*>norep[A,A2,B]	*>norep[A,A2,B]
*>A	*>A	*>A	*>A	*>A	*>A	*>A	*>A
*clefF4	*clefF4	*clefC3	*clefC3	*clefG2	*clefG2	*clefG2	*clefG2
*k[b-e-a-d-]	*k[b-e-a-d-]	*k[b-e-a-d-]	*k[b-e-a-d-]	*k[b-e-a-d-]	*k[b-e-a-d-]	*k[b-e-a-d-]	*k[b-e-a-d-]
*f:	*f:	*f:	*f:	*f:	*f:	*f:	*f:
*M3/4	*M3/4	*M3/4	*M3/4	*M3/4	*M3/4	*M3/4	*M3/4
*MM144	*MM144	*MM144	*MM144	*MM144	*MM144	*MM144	*MM144
=1!|:	=1!|:	=1!|:	=1!|:	=1!|:	=1!|:	=1!|:	=1!|:
8Bn\L	f	8f\L	f	8a-/L	f	8ddn\L	f
16r	.	16r	.	16r	.	16r	.
16B\Jk	.	16f\Jk	.	16a-/Jk	.	16dd\Jk	.
(4c\	.	4f\	.	4a-/	.	(4cc\	.
8dn\)	.	8f\	.	8a-/	.	8bn\)	.
8r	.	8r	.	8r	.	8r	.
=2	=2	=2	=2	=2	=2	=2	=2
2.r	.	2.r	.	2.r	.	2.r	.
=3	=3	=3	=3	=3	=3	=3	=3
8dn\L	.	8f\L	.	8ddn\L	.	8ff\L	.
16r	.	16r	.	16r	.	16r	.
16d\Jk	.	16f\Jk	.	16dd\Jk	.	16ff\Jk	.
(4e-\	.	(4g\	.	(4cc\	.	(4ee-\	.
8f\)	.	8a-\)	.	8bn\)	.	8ddn\)	.
8r	.	8r	.	8r	.	8r	.
=4	=4	=4	=4	=4	=4	=4	=4
2.r	.	2.r	.	2.r	.	2.r	.
=5	=5	=5	=5	=5	=5	=5	=5
4r	.	4r	.	4r	.	8aa-\L	p
.	.	.	.	.	.	16r	.
.	.	.	.	.	.	16aa-\Jk	.
4.BBn/	p	4.G/ 4.dn/	p	4.g\ 4.ddn\	p	(4.gg\	.
8r	.	8r	.	8r	.	8ff\)	.
=6	=6	=6	=6	=6	=6	=6	=6
4r	.	4r	.	4r	.	8ee-\L	.
.	.	.	.	.	.	16r	.
.	.	.	.	.	.	16ee-\Jk	.
4.CC/ 4.C/	.	4.G/	.	4.e-/	.	(4.ddn\	.
8r	.	8r	.	8r	.	8cc\)	.
=7	=7	=7	=7	=7	=7	=7	=7
4FF/	.	8r	.	8r	.	8b-/L	.
.	.	8c\	.	8f/	.	16r	.
.	.	.	.	.	.	16a-/Jk	.
4.FF/	.	8r	.	8r	.	8g/L	.
.	.	8A-/	.	8c/	.	16r	.
.	.	.	.	.	.	16f/Jk	.
.	.	8r	.	8r	.	8e-/L	.
8GG/	.	8G/	.	8Bn/	.	16r	.
.	.	.	.	.	.	16dn/Jk	.
=8	=8	=8	=8	=8	=8	=8	=8
8BB-/L	.	4C/	.	4c/	.	4c/	.
16r	.	.	.	.	.	.	.
16AA-/Jk	.	.	.	.	.	.	.
8GG/L	.	4r	.	4r	.	4r	.
16r	.	.	.	.	.	.	.
16FF/Jk	.	.	.	.	.	.	.
8EE-/L	.	4r	.	4r	.	4r	.
16r	.	.	.	.	.	.	.
16DDn/Jk	.	.	.	.	.	.	.
=9	=9	=9	=9	=9	=9	=9	=9
8CC/L	f	8C/L	f	2.r	.	2.r	.
16r	.	16r	.	.	.	.	.
16G/Jk	.	16B-/Jk	.	.	.	.	.
(4A-\	.	(4c\	.	.	.	.	.
8B-\)	.	8d-\)	.	.	.	.	.
8r	.	8r	.	.	.	.	.
=10	=10	=10	=10	=10	=10	=10	=10
2.r	.	2.r	.	8b-\L	f	8gg\L	.
.	.	.	.	16r	.	16r	f
.	.	.	.	16b-\Jk	.	16gg\Jk	.
.	.	.	.	(4a-/	.	(4ff\	.
.	.	.	.	8g/)	.	8een\)	.
.	.	.	.	8r	.	8r	.
=11	=11	=11	=11	=11	=11	=11	=11
8en\L	.	8g\L	.	2.r	.	2.r	.
16r	.	16r	.	.	.	.	.
16e\Jk	.	16g\Jk	.	.	.	.	.
(4f\	.	(4a-\	.	.	.	.	.
4g\)	.	8b-\)	.	.	.	.	.
.	.	8r	.	.	.	.	.
=12	=12	=12	=12	=12	=12	=12	=12
2.r	.	2.r	.	8bb-\L	.	8ddd-\L	.
.	.	.	.	16r	.	16r	.
.	.	.	.	16bb-\Jk	.	16ddd-\Jk	.
.	.	.	.	(4aa-\	.	(4ccc\	.
.	.	.	.	8gg\)	.	8bb-\)	.
.	.	.	.	8r	.	8r	.
=13	=13	=13	=13	=13	=13	=13	=13
4r	.	8dd-\L	.	4r	.	4r	.
.	.	16r	p	.	.	.	.
.	.	16dd-\Jk	.	.	.	.	.
4.En\	p	4.cc\	.	4.G/ 4.g/	p	4.gg\	p
8r	.	8b-'\	.	8r	.	8r	.
=14	=14	=14	=14	=14	=14	=14	=14
4r	.	8a-\L	.	4r	.	4r	.
.	.	16r	.	.	.	.	.
.	.	16a-\Jk	.	.	.	.	.
4.F\	.	4.g\	.	4.A-/	.	4.cc\	.
8r	.	8f'\	.	8r	.	8r	.
=15	=15	=15	=15	=15	=15	=15	=15
4BB-/	.	8e-\L	.	8r	.	8r	.
.	.	16r	.	8f/	.	8dd-\	.
.	.	16d-\Jk	.	.	.	.	.
4.BB-/	.	8c/L	.	8r	.	8r	.
.	.	16r	.	8f/	.	8dd-\	.
.	.	16B-/Jk	.	.	.	.	.
.	.	8A-/L	.	8r	.	8r	.
8C/	.	16r	.	8en/	.	8cc\	.
.	.	16G/Jk	.	.	.	.	.
=16	=16	=16	=16	=16	=16	=16	=16
8E-\L	.	4F/	.	8f/L	.	8f\L	.
16r	.	.	.	16r	.	16r	.
16D-\Jk	.	.	.	16a-/Jk	.	16ff\Jk	.
8C/L	.	8r	.	8a-\L	.	8ff\L	.
16r	.	16r	.	16r	.	16r	.
16BB-/Jk	.	16C/	.	16een\Jk	.	16gg\Jk	.
8AA-/L	.	8C/L	.	8ff\L	.	8aa-\L	.
16r	.	16r	.	16r	.	16r	.
16GG/Jk	.	16C/Jk	.	16gg\Jk	.	16bb-\Jk	.
=17	=17	=17	=17	=17	=17	=17	=17
4FF/	f	4C/	f	8aa-\L	f	8ccc\L	f
.	.	.	.	16r	.	16r	.
.	.	.	.	16aa-\Jk	.	16ccc\Jk	.
[2FF/ [2C/	.	2C/	.	(4.gg\	.	(4.bb-\	.
.	.	.	.	8ff\)	.	8aa-\)	.
=18	=18	=18	=18	=18	=18	=18	=18
4FF/] 4C/]	.	(4Dn/	.	8cc\L	.	8aa-\L	.
.	.	.	.	16r	.	16r	.
.	.	.	.	16cc\Jk	.	16aa-\Jk	.
2FF/ 2C/	.	4En/	.	(4.b-\	.	(4.gg\	.
.	.	4F/)	.	.	.	.	.
.	.	.	.	8a-/)	.	8ff\)	.
=19	=19	=19	=19	=19	=19	=19	=19
8B-\L	.	8d-\L	.	8g\L	.	8een\L	.
16r	.	16r	.	16r	.	16r	.
16B-\Jk	.	16d-\Jk	.	16een\Jk	.	16gg\Jk	.
(4.A-\	.	(4.c\	.	8ee\L	.	8gg\L	.
.	.	.	.	16r	.	16r	.
.	.	.	.	16ff\Jk	.	16aa-\Jk	.
.	.	.	.	8ff\L	.	8aa-\L	.
8G\)	.	8B-/)	.	16r	.	16r	.
.	.	.	.	16gg\Jk	.	16bb-\Jk	.
=20	=20	=20	=20	=20	=20	=20	=20
8G\L	.	8B-/L	.	8gg\L	.	8bb-\L	.
16r	.	16r	.	16r	.	16r	.
16G\Jk	.	16B-/Jk	.	16g\Jk	.	16b-\Jk	.
(4.F\	.	(4.A-/	.	8g/L	.	8b-\L	.
.	.	.	.	16r	.	16r	.
.	.	.	.	16a-/Jk	.	16cc\Jk	.
.	.	.	.	8a-/L	.	8cc\L	.
8En\)	.	8G/)	.	16r	.	16r	.
.	.	.	.	16b-/Jk	.	16dd-\Jk	.
=21	=21	=21	=21	=21	=21	=21	=21
8En\L	.	8F\L	.	8bb-\L	.	8ddd-\L	.
16r	.	16r	.	16r	.	16r	.
16en\Jk	.	16g\Jk	.	16bb-\Jk	.	16ddd-\Jk	.
8e\L	.	8g\L	.	(4.aa-\	.	(4.ccc\	.
16r	.	16r	.	.	.	.	.
16f\Jk	.	16a-\Jk	.	.	.	.	.
8f\L	.	8a-\L	.	.	.	.	.
16r	.	16r	.	8gg\)	.	8bb-\)	.
16g\Jk	.	16b-\Jk	.	.	.	.	.
=22	=22	=22	=22	=22	=22	=22	=22
8G/L	.	8b-\L	.	8gg\L	.	8bb-\L	.
16r	.	16r	.	16r	.	16r	.
16GG/Jk	.	16B-\Jk	.	16gg\Jk	.	16bb-\Jk	.
8GG/L	.	8B-/L	.	(4.ff\	.	(4.aa-\	.
16r	.	16r	.	.	.	.	.
16AA-/Jk	.	16c/Jk	.	.	.	.	.
8AA-/L	.	8c\L	.	.	.	.	.
16r	.	16r	.	8een\)	.	8gg\)	.
16BB-/Jk	.	16d-\Jk	.	.	.	.	.
=23	=23	=23	=23	=23	=23	=23	=23
8AA-\L	.	8c\L	.	8ff\L	.	8ff\L	.
16r	.	16r	.	16r	.	16r	.
16A-\Jk	.	16c\Jk	.	16ff\Jk	.	16aa-\Jk	.
(4.G\	.	(4.B-/	.	8ff\L	.	8aa-\L	.
.	.	.	.	16r	.	16r	.
.	.	.	.	16gg\Jk	.	16bb-\Jk	.
.	.	.	.	8gg\L	.	8bb-\L	.
8F\)	.	8A-/)	.	16r	.	16r	.
.	.	.	.	16aa-\Jk	.	16ccc\Jk	.
=24	=24	=24	=24	=24	=24	=24	=24
8AA-/L	.	8C/L 8c/	.	8cc\L	.	8ccc\L	.
16r	.	16r	.	16r	.	16r	.
16AA-/Jk	.	16C/Jk 16c/	.	16ddn\Jk	.	16dddn\Jk	.
(4.GG/	.	(4.C/ 4.B-/	.	8dd\L	.	8ddd\L	.
.	.	.	.	16r	.	16r	.
.	.	.	.	16een\Jk	.	16eeen\Jk	.
.	.	.	.	8ee\L	.	8eee\L	.
8FF/)	.	8C/) 8A-/	.	16r	.	16r	.
.	.	.	.	16ff\Jk	.	16fff\Jk	.
=25	=25	=25	=25	=25	=25	=25	=25
4DD-/	ff	4D-/ 4A-/	ff	8ff\L	ff	8fff\L	ff
.	.	.	.	16r	.	16r	.
.	.	.	.	16aa-\Jk	.	16fff\Jk	.
2DD-/	.	2D-/ 2d-/	.	(4.gg-\	.	(4.eee-\	.
.	.	.	.	8ff\)	.	8ddd-\)	.
=26	=26	=26	=26	=26	=26	=26	=26
4GG-/	.	8d-\L	.	8bb-\L	.	8ddd-\L	.
.	.	16r	.	16r	.	16r	.
.	.	16d-\Jk	.	16b-\Jk	.	16ddd-\Jk	.
2GG-/	.	(4.f\	.	(4.a-/	.	(4.bbn\	.
.	.	8g-\)	.	8g-/)	.	8bb-\)	.
=27	=27	=27	=27	=27	=27	=27	=27
8EEn/L	.	8Gn\L 8gn\	.	8gn\L	.	8bb-\L	.
16r	.	16r	.	16r	.	16r	.
16CC/Jk	.	16c\Jk	.	16een\Jk	.	16bb-\Jk	.
8FF/L	.	8c\L	.	8ff\L	.	8aa-\L	.
16r	.	16r	.	16r	.	16r	.
16F/Jk	.	16f\Jk	.	16ff\Jk	.	16ff\Jk	.
8D-/L	.	8d-\L	.	8dd-\L	.	8dd-\L	.
16r	.	16r	.	16r	.	16r	.
16C/Jk	.	16c\Jk	.	16cc\Jk	.	16cc\Jk	.
=28	=28	=28	=28	=28	=28	=28	=28
8BBn/L	.	8Bn/L	.	8bn\L	.	8bn\L	.
16r	.	16r	.	16r	.	16r	.
16C/Jk	.	16c/Jk	.	16cc\Jk	.	16cc\Jk	.
8DD-/L	.	8D-/L	.	8d-/L	.	8d-/L	.
16r	.	16r	.	16r	.	16r	.
16CC/Jk	.	16C/Jk	.	16c/Jk	.	16c/Jk	.
8CC/L	.	8C/L	.	8c/L	.	8c/L	.
16r	.	16r	.	16r	.	16r	.
16CC/Jk	.	16C/Jk	.	16c/Jk	.	16c/Jk	.
=29	=29	=29	=29	=29	=29	=29	=29
4r	.	4r	.	4r	.	8c/L	.
.	.	.	.	.	.	16r	.
.	.	.	.	.	.	16c/Jk	.
2CC/	.	(4.G/	.	(4.B-/	.	(4.en/	.
.	.	8F/)	.	8A-/)	.	8f/)	.
=30	=30	=30	=30	=30	=30	=30	=30
4r	.	4r	.	4r	.	8.c/L	.
.	.	.	.	.	.	16c/Jk	.
2CC/	.	(4.B-/	.	(4.en/	.	(4.g/	.
.	.	8A-/)	.	8f/)	.	8a-/)	.
=31	=31	=31	=31	=31	=31	=31	=31
8BB-/L	ff	8F/L	ff	8d-/L	ff	8b-\L	ff
16r	.	16r	.	16r	.	16r	.
16BB-/Jk	.	16B-/Jk	.	16d-/Jk	.	16cc\Jk	.
4BB-'/	.	4B-'/	.	4d-'/	.	4dd-'\	.
4r	.	4r	.	4r	.	4r	.
=32	=32	=32	=32	=32	=32	=32	=32
8GG/L	.	8en\L	.	8b-\L	.	8dd-\L	.
16r	.	16r	.	16r	.	16r	.
16GG/Jk	.	16e\Jk	.	16b-\Jk	.	16een\Jk	.
4FF'/	.	4a-'\	.	4cc'\	.	4ff'\	.
4r	.	4r	.	4r	.	4r	.
=33	=33	=33	=33	=33	=33	=33	=33
8FF/L	.	4F/	.	4A-/	.	8ff\L	.
16r	.	.	.	.	.	16r	.
16EE-/Jk	.	.	.	.	.	16gg\Jk	.
8DD-/L	.	[2F/	.	[2A-/	.	8aa-\L	.
16r	.	.	.	.	.	16r	.
16DD-/Jk	.	.	.	.	.	16bb-\Jk	.
8DD-/L	.	.	.	.	.	[4ccc\	.
16r	.	.	.	.	.	.	.
16CC/Jk	.	.	.	.	.	.	.
=34	=34	=34	=34	=34	=34	=34	=34
8CC/L	.	8F/L]	.	8A-/L]	.	8ccc\L]	.
16r	.	16r	.	16r	.	16r	.
16C/Jk	.	16F/Jk	.	16a-/Jk	.	16aa-\Jk	.
8C/L	.	8F/L	.	8a-/L	.	8ff\L	.
16r	.	16r	.	16r	.	16r	.
16C/Jk	.	16F/Jk	.	16a-/Jk	.	16dd-\Jk	.
8C/L	.	8G/L	.	8b-\L	.	8cc\L	.
16r	.	16r	.	16r	.	16r	.
16C/Jk	.	16G/Jk	.	16cc\Jk	.	16een\Jk	.
=35	=35	=35	=35	=35	=35	=35	=35
8FF/L	.	4F/ 4A-/	.	8ff\L	.	8ff\L	.
16r	.	.	.	16r	.	16r	.
16EE-/Jk	.	.	.	16gg\Jk	.	16f\Jk	.
8EE-/L	.	[2F/ [2A-/	.	8aa-\L	.	8f/L	.
16r	.	.	.	16r	.	16r	.
16DD-/Jk	.	.	.	16bb-\Jk	.	16g/Jk	.
8DD-/L	.	.	.	[4ccc\	.	8a-/L	.
16r	.	.	.	.	.	16r	.
16CC/Jk	.	.	.	.	.	16b-/Jk	.
=36	=36	=36	=36	=36	=36	=36	=36
8CC/L	.	8F/L] 8A-/]	.	8ccc\L]	.	8cc\L	.
16r	.	16r	.	16r	.	16r	.
16C/Jk	.	16F/Jk 16A-/	.	16aa-\Jk	.	16a-\Jk	.
8C/L	.	8F/L 8A-/	.	8ff\L	.	8f/L	.
16r	.	16r	.	16r	.	16r	.
16CC/Jk	.	16F/Jk 16A-/	.	16dd-\Jk	.	16d-/Jk	.
8CC/L	.	8G/L 8B-/	.	8cc\L	.	8c/L	.
16r	.	16r	.	16r	.	16r	.
16CC/Jk	.	16C/Jk	.	16een\Jk	.	16en/Jk	.
=37	=37	=37	=37	=37	=37	=37	=37
8.FF/L	.	8F/L	.	8ff\L	.	8f/L	.
.	.	16r	.	16r	.	16r	.
16CC/Jk	.	16C/Jk	.	16cc\Jk	.	16c/Jk	.
4CC/	.	4C/	.	4cc\	.	4c/	.
4r	.	4r	.	4r	.	4r	.
=38	=38	=38	=38	=38	=38	=38	=38
8AA-/L	.	8A-/L	.	8aa-\L	.	8a-/L	.
16r	.	16r	.	16r	.	16r	.
16FF/Jk	.	16F/Jk	.	16ff\Jk	.	16f/Jk	.
4FF/	.	4F/	.	4ff\	.	4f/	.
4r	.	4r	.	4r	.	4r	.
=39	=39	=39	=39	=39	=39	=39	=39
8F\L	.	8f\L	.	8ff\L	.	8ff\L	.
16r	.	16r	.	16r	.	16r	.
16C\Jk	.	16c\Jk	.	16cc\Jk	.	16cc\Jk	.
4AA-'/	.	4A-'/	.	4a-'/	.	4a-'/	.
4C'/	.	4c'\	.	4cc'\	.	4cc'\	.
=40	=40	=40	=40	=40	=40	=40	=40
*>A1	*>A1	*>A1	*>A1	*>A1	*>A1	*>A1	*>A1
4FF'/	.	4F'/	.	4f'/	.	4f'/	.
2Bn\	.	2a-\	.	2f/	.	2ddn\	.
=41:|!	=41:|!	=41:|!	=41:|!	=41:|!	=41:|!	=41:|!	=41:|!
*>A2	*>A2	*>A2	*>A2	*>A2	*>A2	*>A2	*>A2
4FF'/	.	4F'/	.	4f'/	.	4f'/	.
[2GG-/	.	[2G-/	.	[2g-/	.	[2g-/	.
=42	=42	=42	=42	=42	=42	=42	=42
*>B	*>B	*>B	*>B	*>B	*>B	*>B	*>B
2.GG-/]	p	2.G-/]	p	2.g-/]	p	8g-/L]	p
.	.	.	.	.	.	8g-'/J	.
.	.	.	.	.	.	(8g-/L	.
.	.	.	.	.	.	8d-/J	.
.	.	.	.	.	.	8B-/L	.
.	.	.	.	.	.	8g-/J)	.
=43	=43	=43	=43	=43	=43	=43	=43
2.G-\	.	2.B-/	.	2.dd-\	.	8r	.
.	.	.	.	.	.	8g-'/	.
.	.	.	.	.	.	(8g-/L	.
.	.	.	.	.	.	8d-/J	.
.	.	.	.	.	.	8B-/L	.
.	.	.	.	.	.	8g-/J)	.
=44	=44	=44	=44	=44	=44	=44	=44
(2.G-\	.	(2.B-/	.	(2.dd-\	.	8r	.
.	.	.	.	.	.	8g-'/	.
.	.	.	.	.	.	(8g-/L	.
.	.	.	.	.	.	8d-/J	.
.	.	.	.	.	.	8B-/L	.
.	.	.	.	.	.	8g-/J)	.
=45	=45	=45	=45	=45	=45	=45	=45
2.BBn/)	.	2.c-\)	.	2.ee-\)	.	8r	.
.	.	.	.	.	.	8g-'/	.
.	.	.	.	.	.	(8g-/L	.
.	.	.	.	.	.	8e-/J	.
.	.	.	.	.	.	8Bn/L	.
.	.	.	.	.	.	8g-/J)	.
=46	=46	=46	=46	=46	=46	=46	=46
(2.BB-/	.	(2.G\ 2.g\	.	(2.een\	.	8r	.
.	.	.	.	.	.	8gn'/	.
.	.	.	.	.	.	(8g/L	.
.	.	.	.	.	.	8en/J	.
.	.	.	.	.	.	8d-/L	.
.	.	.	.	.	.	8g/J)	.
=47	=47	=47	=47	=47	=47	=47	=47
2.BBn/	.	2.A-/	.	2.ee-\	.	8r	.
.	.	.	.	.	.	8a-'/	.
.	.	.	.	.	.	(8a-/L	.
.	.	.	.	.	.	8e-/J	.
.	.	.	.	.	.	8Bn/L	.
.	.	.	.	.	.	8a-/J)	.
=48	=48	=48	=48	=48	=48	=48	=48
2.D-\)	.	2.B-/	.	2dd-\	.	8r	.
.	.	.	.	.	.	8b-'\	.
.	.	.	.	.	.	(8b-/L	.
.	.	.	.	.	.	8g-/J	.
.	.	.	.	4gg-\	.	8d-/L	.
.	.	.	.	.	.	8b-/J)	.
=49	=49	=49	=49	=49	=49	=49	=49
(2.D-\	.	2Bn/	.	4ff\	.	8r	.
.	.	.	.	.	.	8a-'/	.
.	.	.	.	4aa-\)	.	(8a-/L	.
.	.	.	.	.	.	8f/J	.
.	.	4A-/)	.	4bn'\	.	8d-/L	.
.	.	.	.	.	.	8f/J)	.
=50	=50	=50	=50	=50	=50	=50	=50
4GG-/)	.	4G-/	.	4b-\	.	8g-'\L	.
.	.	.	.	.	.	8dd-'\J	.
4r	.	4r	.	4r	.	(8dd-\L	.
.	.	.	.	.	.	8b-\J	.
4r	.	4r	.	4r	.	8ee-\L	.
.	.	.	.	.	.	8bn\J)	.
=51	=51	=51	=51	=51	=51	=51	=51
2.r	.	2.r	.	2.r	.	(8dd-\L	.
.	.	.	.	.	.	8b-\J	.
.	.	.	.	.	.	8ee-\L	.
.	.	.	.	.	.	8bn\J	.
.	.	.	.	.	.	8b/L	.
.	.	.	.	.	.	8a-/J)	.
=52	=52	=52	=52	=52	=52	=52	=52
2.r	.	2.r	.	2.r	.	(8dd-\L	.
.	.	.	.	.	.	8b-\J	.
.	.	.	.	.	.	8b-/L	.
.	.	.	.	.	.	8g-/J	.
.	.	.	.	.	.	8bn/L	.
.	.	.	.	.	.	8a-/J)	.
=53	=53	=53	=53	=53	=53	=53	=53
2.r	.	2.r	.	2.r	.	(8a-/L	.
.	.	.	.	.	.	8f/J	.
.	.	.	.	.	.	8b-/L	.
.	.	.	.	.	.	8g-/J	.
.	.	.	.	.	.	8b-/L	.
.	.	.	.	.	.	8g-/J)	.
=54	=54	=54	=54	=54	=54	=54	=54
2.G-\	p	2.G-/	p	2.b-\	p	8b-\L	p
.	.	.	.	.	.	8dd-\J	.
.	.	.	.	.	.	(8dd-\L	.
.	.	.	.	.	.	8b-\J	.
.	.	.	.	.	.	8g-\L	.
.	.	.	.	.	.	8dd-\J)	.
=55	=55	=55	=55	=55	=55	=55	=55
2.d-\	.	2.G-/	.	2.bb-\	.	8r	.
.	.	.	.	.	.	8dd-\	.
.	.	.	.	.	.	(8dd-\L	.
.	.	.	.	.	.	8b-\J	.
.	.	.	.	.	.	8g-\L	.
.	.	.	.	.	.	8dd-\J)	.
=56	=56	=56	=56	=56	=56	=56	=56
(2.d-\	.	(2.G-/	.	(2.bb-\	.	8r	.
.	.	.	.	.	.	8dd-\	.
.	.	.	.	.	.	(8dd-\L	.
.	.	.	.	.	.	8b-\J	.
.	.	.	.	.	.	8g-\L	.
.	.	.	.	.	.	8dd-\J)	.
=57	=57	=57	=57	=57	=57	=57	=57
2.e-\)	.	2.Bn/)	.	2.bbn\)	.	8r	.
.	.	.	.	.	.	8ee-'\	.
.	.	.	.	.	.	(8ee-\L	.
.	.	.	.	.	.	8bn\J	.
.	.	.	.	.	.	8g-\L	.
.	.	.	.	.	.	8ee-\J)	.
=58	=58	=58	=58	=58	=58	=58	=58
(2.en\	.	(2.B-/	.	(2.ddd-\	.	8r	.
.	.	.	.	.	.	8een'\	.
.	.	.	.	.	.	(8ee\L	.
.	.	.	.	.	.	8gn\J	.
.	.	.	.	.	.	8G/L	.
.	.	.	.	.	.	8ee/J)	.
=59	=59	=59	=59	=59	=59	=59	=59
2.e-\	.	2.Bn/	.	2.bbn\	.	8r	.
.	.	.	.	.	.	8ee-'\	.
.	.	.	.	.	.	(8ee-\L	.
.	.	.	.	.	.	8bn\J	.
.	.	.	.	.	.	8a-\L	.
.	.	.	.	.	.	8ee-\J)	.
=60	=60	=60	=60	=60	=60	=60	=60
2d-\	.	2.d-\	.	2.bb-\	.	8r	.
.	.	.	.	.	.	8dd-'\	.
.	.	.	.	.	.	(8dd-\L	.
.	.	.	.	.	.	8b-\J	.
4g-\	.	.	.	.	.	8g-\L	.
.	.	.	.	.	.	8dd-\J)	.
=61	=61	=61	=61	=61	=61	=61	=61
4f\	.	2.D-/)	.	4aa-\	.	8r	.
.	.	.	.	.	.	8dd-'\	.
4a-\)	.	.	.	4ccc-\)	.	(8dd-\L	.
.	.	.	.	.	.	8bn\J	.
4Bn'\	.	.	.	4ff'\	.	8a-\L	.
.	.	.	.	.	.	8dd-\J)	.
=62	=62	=62	=62	=62	=62	=62	=62
4B-\	.	4G-/	.	4gg-\	.	4dd-\	.
4r	.	4r	.	4r	.	(8dd-\L	.
.	.	.	.	.	.	8b-\J	.
4r	.	4r	.	4r	.	8ee-\L	.
.	.	.	.	.	.	8bn\J)	.
=63	=63	=63	=63	=63	=63	=63	=63
2.r	.	2.r	.	2.r	.	(8dd-\L	.
.	.	.	.	.	.	8b-\J	.
.	.	.	.	.	.	8ee-\L	.
.	.	.	.	.	.	8bn\J	.
.	.	.	.	.	.	8b/L	.
.	.	.	.	.	.	8a-/J)	.
=64	=64	=64	=64	=64	=64	=64	=64
2.r	.	2.r	.	2.r	.	(8dd-\L	.
.	.	.	.	.	.	8b-\J	.
.	.	.	.	.	.	8b-/L	.
.	.	.	.	.	.	8g-/J	.
.	.	.	.	.	.	8bn/L	.
.	.	.	.	.	.	8a-/J)	.
=65	=65	=65	=65	=65	=65	=65	=65
2.r	.	2.r	.	2.r	.	(8a-/L	.
.	.	.	.	.	.	8f/J	.
.	.	.	.	.	.	8an/L	.
.	.	.	.	.	.	8g-/J	.
.	.	.	.	.	.	8a/L	.
.	.	.	.	.	.	8g-/J)	.
=66	=66	=66	=66	=66	=66	=66	=66
*k[f#c#]	*k[f#c#]	*k[f#c#]	*k[f#c#]	*k[f#c#]	*k[f#c#]	*k[f#c#]	*k[f#c#]
2.DDn/	p	2.Dn/	p	2.dn/	.	8an'/L	.
.	.	.	.	.	.	8a'/J	.
.	.	.	.	.	.	(8a/L	.
.	.	.	.	.	.	8f#/J	.
.	.	.	.	.	.	8dn/L	.
.	.	.	.	.	.	8an/J)	.
=67	=67	=67	=67	=67	=67	=67	=67
(2.D\	.	2.F#/ 2.d/	.	2.aa\	p	8r	.
.	.	.	.	.	.	8a'/	.
.	.	.	.	.	.	(8a/L	.
.	.	.	.	.	.	8f#/J	.
.	.	.	.	.	.	8d/L	.
.	.	.	.	.	.	8a/J)	.
=68	=68	=68	=68	=68	=68	=68	=68
2.Cn/	.	2.F#/ 2.d/	.	(2.aa\	.	8r	.
.	.	.	.	.	.	8a'/	.
.	.	.	.	.	.	(8a/L	.
.	.	.	.	.	.	8f#/J	.
.	.	.	.	.	.	8d/L	.
.	.	.	.	.	.	8a/J)	.
=69	=69	=69	=69	=69	=69	=69	=69
2.BB/)	.	2.G/ 2.d/	.	2.bb\)	.	8r	.
.	.	.	.	.	.	8b'\	.
.	.	.	.	.	.	(8b/L	.
.	.	.	.	.	.	8g/J	.
.	.	.	.	.	.	8d/L	.
.	.	.	.	.	.	8b/J)	.
=70	=70	=70	=70	=70	=70	=70	=70
(2.FF#/	.	(2.D#/	.	(2.a\ 2.cccn\	.	8r	.
.	.	.	.	.	.	8ccn'\	.
.	.	.	.	.	.	(8cc\L	.
.	.	.	.	.	.	8a\J	.
.	.	.	.	.	.	8d#/L	.
.	.	.	.	.	.	8cc/J)	.
=71	=71	=71	=71	=71	=71	=71	=71
2.GG/	.	2.E/ 2.G/	.	2.bb\	.	8r	.
.	.	.	.	.	.	8b'\	.
.	.	.	.	.	.	(8b/L	.
.	.	.	.	.	.	8e/J	.
.	.	.	.	.	.	8G/L	.
.	.	.	.	.	.	8b/J)	.
=72	=72	=72	=72	=72	=72	=72	=72
2.AA/	.	2.F#/	.	2aa\	.	8r	.
.	.	.	.	.	.	8a'/	.
.	.	.	.	.	.	(8a/L	.
.	.	.	.	.	.	8f#/J	.
.	.	.	.	4ddd\	.	8dn/L	.
.	.	.	.	.	.	8a/J)	.
=73	=73	=73	=73	=73	=73	=73	=73
2.AA/)	.	4E/	.	4ccc#\	.	8r	.
.	.	.	.	.	.	8a'/	.
.	.	4G/)	.	4eee\)	.	(8a/L	.
.	.	.	.	.	.	8g/J	.
.	.	4A/	.	4gg\	.	8e/L	.
.	.	.	.	.	.	8a/J)	.
=74	=74	=74	=74	=74	=74	=74	=74
4DD/	.	4A/	.	4ff#\	.	4a/	.
4r	.	4r	.	4r	.	(8aa\L	.
.	.	.	.	.	.	8ff#\J	.
4r	.	4r	.	4r	.	8bb\L	.
.	.	.	.	.	.	8gg\J)	.
=75	=75	=75	=75	=75	=75	=75	=75
2.r	.	2.r	.	2.r	.	(8aa\L	.
.	.	.	.	.	.	8ff#\J	.
.	.	.	.	.	.	8bb\L	.
.	.	.	.	.	.	8gg\J	.
.	.	.	.	.	.	8gg\L	.
.	.	.	.	.	.	8ee\J)	.
=76	=76	=76	=76	=76	=76	=76	=76
2.r	.	2.r	.	2.r	.	(8aa\L	.
.	.	.	.	.	.	8ff#\J	.
.	.	.	.	.	.	8ff#\L	.
.	.	.	.	.	.	8a\J	.
.	.	.	.	.	.	8gg\L	.
.	.	.	.	.	.	8b\J)	.
=77	=77	=77	=77	=77	=77	=77	=77
2.r	.	2.r	.	2.r	.	(8ee\L	.
.	.	.	.	.	.	8g\J	.
.	.	.	.	.	.	8cc#/L	.
.	.	.	.	.	.	8e/J	.
.	.	.	.	.	.	8dd/L	.
.	.	.	.	.	.	8f#/J)	.
=78	=78	=78	=78	=78	=78	=78	=78
2.DD/	p	2.D/	p	2.d/	p	8d'/L	.
.	.	.	.	.	.	8a'/J	.
.	.	.	.	.	.	(8a/L	.
.	.	.	.	.	.	8f#/J	.
.	.	.	.	.	.	8d/L	.
.	.	.	.	.	.	8a/J)	.
=79	=79	=79	=79	=79	=79	=79	=79
2.D\	.	2.F#/	.	2.a/	.	8r	.
.	.	.	.	.	.	8a'/	.
.	.	.	.	.	.	(8a/L	.
.	.	.	.	.	.	8f#/J	.
.	.	.	.	.	.	8d/L	.
.	.	.	.	.	.	8a/J)	.
=80	=80	=80	=80	=80	=80	=80	=80
(2.D\	.	(2.F#/	.	(2.a/	.	8r	.
.	.	.	.	.	.	8a'/	.
.	.	.	.	.	.	(8a/L	.
.	.	.	.	.	.	8f#/J	.
.	.	.	.	.	.	8d/L	.
.	.	.	.	.	.	8a/J)	.
=81	=81	=81	=81	=81	=81	=81	=81
2.C#/	.	2.E/	.	2.a#/	.	8r	.
.	.	.	.	.	.	8a#'/	.
.	.	.	.	.	.	(8a#/L	.
.	.	.	.	.	.	8f#/J	.
.	.	.	.	.	.	8e/L	.
.	.	.	.	.	.	8a#/J)	.
=82	=82	=82	=82	=82	=82	=82	=82
2.BB/	.	2.D/	.	2.b\	.	8r	.
.	.	.	.	.	.	8b'\	.
.	.	.	.	.	.	(8b/L	.
.	.	.	.	.	.	8f#/J	.
.	.	.	.	.	.	8d/L	.
.	.	.	.	.	.	8b/J)	.
=83	=83	=83	=83	=83	=83	=83	=83
2.AA#/)	.	2C#/	.	2.cc#\)	.	8r	.
.	.	.	.	.	.	8cc#'\	.
.	.	.	.	.	.	(8cc#/L	.
.	.	.	.	.	.	8f#/J	.
.	.	4F#/)	.	.	.	8e/L	.
.	.	.	.	.	.	8cc#/J)	.
=84	=84	=84	=84	=84	=84	=84	=84
(2.BB/	.	(2.F#/	.	(2.dd\	.	8r	.
.	.	.	.	.	.	8dd'\	.
.	.	.	.	.	.	(8dd/L	.
.	.	.	.	.	.	8f#/J	.
.	.	.	.	.	.	8d/L	.
.	.	.	.	.	.	8dd/J)	.
=85	=85	=85	=85	=85	=85	=85	=85
2.GG/)	p	2.B/)	p	2.ee\)	p	8r	.
.	.	.	.	.	.	8ee'\	p
.	.	.	.	.	.	(8ee\L	.
.	.	.	.	.	.	8b\J	.
.	.	.	.	.	.	8e/L	.
.	.	.	.	.	.	8ee/J)	.
=86	=86	=86	=86	=86	=86	=86	=86
2.GG/	.	2.E/ 2.B/	.	2.e/ 2.ee/	.	8r	.
.	.	.	.	.	.	8ee'\	.
.	.	.	.	.	.	(8ee\L	.
.	.	.	.	.	.	8b\J	.
.	.	.	.	.	.	8e/L	.
.	.	.	.	.	.	8ee/J)	.
=87	=87	=87	=87	=87	=87	=87	=87
2.BB/	.	2.E/ 2.G/	.	2.e/ 2.cc#/	.	8r	.
.	.	.	.	.	.	8gg'\	.
.	.	.	.	.	.	(8gg\L	.
.	.	.	.	.	.	8b\J	.
.	.	.	.	.	.	8e\L	.
.	.	.	.	.	.	8gg\J)	.
=88	=88	=88	=88	=88	=88	=88	=88
2.GG/	.	2.E/ 2.B/	.	2.e/ 2.ee/	.	8r	.
.	.	.	.	.	.	8ee'\	.
.	.	.	.	.	.	(8ee\L	.
.	.	.	.	.	.	8b\J	.
.	.	.	.	.	.	8e/L	.
.	.	.	.	.	.	8ee/J)	.
=89	=89	=89	=89	=89	=89	=89	=89
2.BB/	.	2.E/ 2.G/	.	2.e/ 2.cc#/	.	8r	.
.	.	.	.	.	.	8gg'\	.
.	.	.	.	.	.	(8gg\L	.
.	.	.	.	.	.	8b\J	.
.	.	.	.	.	.	8e\L	.
.	.	.	.	.	.	8gg\J)	.
=90	=90	=90	=90	=90	=90	=90	=90
2.FF#/	.	(2.B/	.	(2.dd\	.	8r	.
.	.	.	.	.	.	8ff#'\	.
.	.	.	.	.	.	(8ff#\L	.
.	.	.	.	.	.	8dd\J	.
.	.	.	.	.	.	8b\L	.
.	.	.	.	.	.	8ff#\J)	.
=91	=91	=91	=91	=91	=91	=91	=91
[2.FF#/	.	(2.B-/)	.	2.cc#\	.	8r	.
.	.	.	.	.	.	8f#'/	.
.	.	.	.	.	.	(8f#/L	.
.	.	.	.	.	.	8c#/J	.
.	.	.	.	.	.	8A#/L	.
.	.	.	.	.	.	8f#/J)	.
=92	=92	=92	=92	=92	=92	=92	=92
2.FF#/]	p	2.An/)	p	2.ee\ 2.gg\	p	8r	.
.	.	.	.	.	.	8g'/	p
.	.	.	.	.	.	(8g/L	.
.	.	.	.	.	.	8e/J	.
.	.	.	.	.	.	8A#/L	.
.	.	.	.	.	.	8g/J)	.
=93	=93	=93	=93	=93	=93	=93	=93
2.BB/	pp	2.B/	pp	2.dd\) 2.ff#\	pp	8r	.
.	.	.	.	.	.	8f#'/	pp
.	.	.	.	.	.	(8f#/L	.
.	.	.	.	.	.	8d/J	.
.	.	.	.	.	.	8B/L	.
.	.	.	.	.	.	8f#/J)	.
=94	=94	=94	=94	=94	=94	=94	=94
2.BB/	.	2.F#/	.	2.f#/	.	8r	.
.	.	.	.	.	.	8f#'/	.
.	.	.	.	.	.	(8f#/L	.
.	.	.	.	.	.	8d/J	.
.	.	.	.	.	.	8B/L	.
.	.	.	.	.	.	8f#/J)	.
=95	=95	=95	=95	=95	=95	=95	=95
2.BB/	.	2.B/	.	2.b\	.	8r	.
.	.	.	.	.	.	8b'\	.
.	.	.	.	.	.	(8b/L	.
.	.	.	.	.	.	8f#/J	.
.	.	.	.	.	.	8d/L	.
.	.	.	.	.	.	8b/J)	.
=96	=96	=96	=96	=96	=96	=96	=96
4BB/	.	4B/	.	4b\	.	(8b\L	.
.	.	.	.	.	.	8ff#\J	.
4r	.	4r	.	4r	.	8ff#\L	.
.	.	.	.	.	.	8dd\J	.
4r	.	4r	.	4r	.	8dd\L	.
.	.	.	.	.	.	8b\J)	.
=97	=97	=97	=97	=97	=97	=97	=97
2.r	.	2.r	.	2.r	.	(8dd\L	.
.	.	.	.	.	.	8b\J	.
.	.	.	.	.	.	8b/L	.
.	.	.	.	.	.	8f#/J	.
.	.	.	.	.	.	8dd\L	.
.	.	.	.	.	.	8b\J)	.
=98	=98	=98	=98	=98	=98	=98	=98
2.r	.	2.r	.	2.r	.	(8b/L	.
.	.	.	.	.	.	8f#/J	.
.	.	.	.	.	.	8f#/L	.
.	.	.	.	.	.	8d/J	.
.	.	.	.	.	.	8b/L	.
.	.	.	.	.	.	8f#/J)	.
=99	=99	=99	=99	=99	=99	=99	=99
2.r	.	2.r	.	2.r	.	(8f#/L	.
.	.	.	.	.	.	8d/J	.
.	.	.	.	.	.	8d/L	.
.	.	.	.	.	.	8B/J	.
.	.	.	.	.	.	8d/L	.
.	.	.	.	.	.	8B/J)	.
=100	=100	=100	=100	=100	=100	=100	=100
2.r	.	2.r	.	2.r	.	4B/	pp
.	.	.	.	.	.	2B/	.
=101	=101	=101	=101	=101	=101	=101	=101
2.r	.	2.r	.	2.r	.	4B/	.
.	.	.	.	.	.	2B/	.
=102	=102	=102	=102	=102	=102	=102	=102
2.r	.	4B/	pp	4d/	pp	2.r	.
.	.	2B/	.	2d/	.	.	.
=103	=103	=103	=103	=103	=103	=103	=103
4B\	f	4fn\	f	4a-/	f	4d/ 4dd/	f
2B\	.	2f\	.	2a-/	.	2d/ 2dd/	.
=104	=104	=104	=104	=104	=104	=104	=104
8B\L	f	8fn\L	f	8a-/L	f	8dd\L	f
16r	.	16r	.	16r	.	16r	.
16B\Jk	.	16f\Jk	.	16a-/Jk	.	16dd\Jk	.
(4cn\	.	4f\	.	4g#/	.	(4ccn\	.
8d\)	.	8f\	.	8g#/	.	8b\)	.
8r	.	8r	.	8r	.	8r	.
=105	=105	=105	=105	=105	=105	=105	=105
2.r	.	2.r	.	2.r	.	2.r	.
=106	=106	=106	=106	=106	=106	=106	=106
8d\L	.	8fn\L	.	8dd\L	.	8ffn\L	.
16r	.	16r	.	16r	.	16r	.
16d\Jk	.	16f\Jk	.	16dd\Jk	.	16ff\Jk	.
(4e-\	.	(4g\	.	(4ccn\	.	(4ee-\	.
8fn\)	.	8g#\)	.	8b\)	.	8dd\)	.
8r	.	8r	.	8r	.	8r	.
=107	=107	=107	=107	=107	=107	=107	=107
2.r	.	2.r	.	2.r	.	2.r	.
=108	=108	=108	=108	=108	=108	=108	=108
4r	.	4r	.	4r	.	8aa-\L	p
.	.	.	.	.	.	16r	.
.	.	.	.	.	.	16aa-\Jk	.
4.BB/	.	4.Gn/ 4.d/	.	4.g\ 4.dd\	.	4.ggn\	.
8r	p	8r	p	8r	p	8ffn\	.
=109	=109	=109	=109	=109	=109	=109	=109
4r	.	4r	.	4r	.	8ee-\L	.
.	.	.	.	.	.	16r	.
.	.	.	.	.	.	16ee-\Jk	.
4.Cn/	.	4.G/	.	4.d#/	.	4.ddn\	.
8r	.	8r	.	8r	.	8ccn\	.
=110	=110	=110	=110	=110	=110	=110	=110
4FFn/	.	8r	.	8r	.	8b-/L	.
.	.	8cn\	.	8fn/	.	16r	.
.	.	.	.	.	.	16a-/Jk	.
4.FF/	.	8r	.	8r	.	8g/L	.
.	.	8A-/	.	8cn/	.	16r	.
.	.	.	.	.	.	16fn/Jk	.
.	.	8r	.	8r	.	8e-/L	.
8GG/	.	8Gn/	.	8B/	.	16r	.
.	.	.	.	.	.	16d/Jk	.
=111	=111	=111	=111	=111	=111	=111	=111
8BB-/L	.	4Cn/	.	4cn/	.	4cn/	.
16r	.	.	.	.	.	.	.
16AA-/Jk	.	.	.	.	.	.	.
8GG/L	.	4r	.	4r	.	4r	.
16r	.	.	.	.	.	.	.
16FFn/Jk	.	.	.	.	.	.	.
8EE-/L	.	4r	.	4r	.	4r	.
16r	.	.	.	.	.	.	.
16DD/Jk	.	.	.	.	.	.	.
=112	=112	=112	=112	=112	=112	=112	=112
*k[b-e-a-d-]	*k[b-e-a-d-]	*k[b-e-a-d-]	*k[b-e-a-d-]	*k[b-e-a-d-]	*k[b-e-a-d-]	*k[b-e-a-d-]	*k[b-e-a-d-]
8CCn/L	f	8Cn/L	f	2.r	.	2.r	.
16r	.	16r	.	.	.	.	.
16G/Jk	.	16B-/Jk	.	.	.	.	.
(4A-\	.	(4cn\	.	.	.	.	.
8B-\)	.	8d-\)	.	.	.	.	.
8r	.	8r	.	.	.	.	.
=113	=113	=113	=113	=113	=113	=113	=113
2.r	.	2.r	.	8b-\L	f	8gg\L	.
.	.	.	.	16r	.	16r	f
.	.	.	.	16b-\Jk	.	16gg\Jk	.
.	.	.	.	(4a-/	.	(4ffn\	.
.	.	.	.	8g/)	.	8een\)	.
.	.	.	.	8r	.	8r	.
=114	=114	=114	=114	=114	=114	=114	=114
8en\L	.	8g\L	.	2.r	.	2.r	.
16r	.	16r	.	.	.	.	.
16e\Jk	.	16g\Jk	.	.	.	.	.
(4f\	.	(4a-\	.	.	.	.	.
8g\)	.	8b-\)	.	.	.	.	.
8r	.	8r	.	.	.	.	.
=115	=115	=115	=115	=115	=115	=115	=115
2.r	.	2.r	.	8bb-\L	.	8ddd-\L	.
.	.	.	.	16r	.	16r	.
.	.	.	.	16bb-\Jk	.	16ddd-\Jk	.
.	.	.	.	(4aa-\	.	(4ccc\	.
.	.	.	.	8gg\)	.	8bb-\)	.
.	.	.	.	8r	.	8r	.
=116	=116	=116	=116	=116	=116	=116	=116
4r	.	8dd-\L	p	4r	.	4r	.
.	.	16r	.	.	.	.	.
.	.	16dd-\Jk	.	.	.	.	.
4.En\	p	4.cc\	.	4.G/ 4.g/	p	4.gg\	p
8r	.	8b-\	.	8r	.	8r	.
=117	=117	=117	=117	=117	=117	=117	=117
4r	.	8a-\L	.	4r	.	4r	.
.	.	16r	.	.	.	.	.
.	.	16a-\Jk	.	.	.	.	.
4.F\	.	4.g\	.	4.A-/	.	4.cc\	.
8r	.	8f\	.	8r	.	8r	.
=118	=118	=118	=118	=118	=118	=118	=118
4BB-/	.	8e-\L	.	8r	.	8r	.
.	.	16r	.	8f/	.	8dd-\	.
.	.	16d-\Jk	.	.	.	.	.
4.BB-/	.	8c/L	.	8r	.	8r	.
.	.	16r	.	8f/	.	8dd-\	.
.	.	16B-/Jk	.	.	.	.	.
.	.	8A-/L	.	8r	.	8r	.
8C/	.	16r	.	8en/	.	8cc\	.
.	.	16G/Jk	.	.	.	.	.
=119	=119	=119	=119	=119	=119	=119	=119
8E-\L	.	4F/	.	8f/L	.	8f\L	.
16r	.	.	.	16r	.	16r	.
16D-\Jk	.	.	.	16a-/Jk	.	16ff\Jk	.
8C/L	.	8r	.	8a-\L	.	8ff\L	.
16r	.	16r	.	16r	.	16r	.
16BB-/Jk	.	16C/	.	16een\Jk	.	16gg\Jk	.
8AA-/L	.	8C/L	.	8ff\L	.	8aa-\L	.
16r	.	16r	.	16r	.	16r	.
16GG/Jk	.	16C/Jk	.	16gg\Jk	.	16bb-\Jk	.
=120	=120	=120	=120	=120	=120	=120	=120
4FF/	f	4C/	f	8aa-\L	f	8ccc\L	f
.	.	.	.	16r	.	16r	.
.	.	.	.	16aa-\Jk	.	16ccc\Jk	.
[2FF/ [2C/	.	2C/	.	(4.gg\	.	(4.bb-\	.
.	.	.	.	8ff\)	.	8aa-\)	.
=121	=121	=121	=121	=121	=121	=121	=121
4FF/] 4C/]	.	4Dn/	.	8cc\L	.	8aa-\L	.
.	.	.	.	16r	.	16r	.
.	.	.	.	16cc\Jk	.	16aa-\Jk	.
2FF/ 2C/	.	4En/	.	(4.b-\	.	(4.gg\	.
.	.	4F/	.	.	.	.	.
.	.	.	.	8a-/)	.	8ff\)	.
=122	=122	=122	=122	=122	=122	=122	=122
8B-\L	.	8d-\L	.	8g\L	.	8een\L	.
16r	.	16r	.	16r	.	16r	.
16B-\Jk	.	16d-\Jk	.	16een\Jk	.	16gg\Jk	.
(4.A-\	.	(4.c\	.	8ee\L	.	8gg\L	.
.	.	.	.	16r	.	16r	.
.	.	.	.	16ff\Jk	.	16aa-\Jk	.
.	.	.	.	8ff\L	.	8aa-\L	.
8G\)	.	8B-/)	.	16r	.	16r	.
.	.	.	.	16gg\Jk	.	16bb-\Jk	.
=123	=123	=123	=123	=123	=123	=123	=123
8G\L	.	8B-/L	.	8gg\L	.	8bb-\L	.
16r	.	16r	.	16r	.	16r	.
16G\Jk	.	16B-/Jk	.	16g\Jk	.	16b-\Jk	.
(4.F\	.	(4.A-/	.	8g/L	.	8b-\L	.
.	.	.	.	16r	.	16r	.
.	.	.	.	16a-/Jk	.	16cc\Jk	.
.	.	.	.	8a-/L	.	8cc\L	.
8En\)	.	8G/)	.	16r	.	16r	.
.	.	.	.	16b-/Jk	.	16dd-\Jk	.
=124	=124	=124	=124	=124	=124	=124	=124
8En\L	.	8G\L	.	8bb-\L	.	8ddd-\L	.
16r	.	16r	.	16r	.	16r	.
16en\Jk	.	16g\Jk	.	16bb-\Jk	.	16ddd-\Jk	.
8e\L	.	8g\L	.	(4.aa-\	.	(4.ccc\	.
16r	.	16r	.	.	.	.	.
16f\Jk	.	16a-\Jk	.	.	.	.	.
8f\L	.	8a-\L	.	.	.	.	.
16r	.	16r	.	8gg\)	.	8bb-\)	.
16g\Jk	.	16b-\Jk	.	.	.	.	.
=125	=125	=125	=125	=125	=125	=125	=125
8G/L	.	8b-\L	.	8gg\L	.	8bb-\L	.
16r	.	16r	.	16r	.	16r	.
16GG/Jk	.	16B-\Jk	.	16gg\Jk	.	16bb-\Jk	.
8GG/L	.	8B-/L	.	(4.ff\	.	(4.aa-\	.
16r	.	16r	.	.	.	.	.
16AA-/Jk	.	16c/Jk	.	.	.	.	.
8AA-/L	.	8c\L	.	.	.	.	.
16r	.	16r	.	8een\)	.	8gg\)	.
16BB-/Jk	.	16d-\Jk	.	.	.	.	.
=126	=126	=126	=126	=126	=126	=126	=126
8AA-\L	.	8c\L	.	8ff\L	.	8ff\L	.
16r	.	16r	.	16r	.	16r	.
16A-\Jk	.	16c\Jk	.	16ff\Jk	.	16aa-\Jk	.
(4.G\	.	(4.B-/	.	8ff\L	.	8aa-\L	.
.	.	.	.	16r	.	16r	.
.	.	.	.	16gg\Jk	.	16bb-\Jk	.
.	.	.	.	8gg\L	.	8bb-\L	.
8F\)	.	8A-/)	.	16r	.	16r	.
.	.	.	.	16aa-\Jk	.	16ccc\Jk	.
=127	=127	=127	=127	=127	=127	=127	=127
8AA-/L	.	8C/L 8c/	.	8cc\L	.	8ccc\L	.
16r	.	16r	.	16r	.	16r	.
16AA-/Jk	.	16C/Jk 16c/	.	16ddn\Jk	.	16dddn\Jk	.
(4.GG/	.	(4.C/ 4.B-/	.	8dd\L	.	8ddd\L	.
.	.	.	.	16r	.	16r	.
.	.	.	.	16een\Jk	.	16eeen\Jk	.
.	.	.	.	8ee\L	.	8eee\L	.
8FF/)	.	8C/) 8A-/	.	16r	.	16r	.
.	.	.	.	16ff\Jk	.	16fff\Jk	.
=128	=128	=128	=128	=128	=128	=128	=128
4DD-/	ff	4D-/ 4A-/	ff	8ff\L	ff	8fff\L	ff
.	.	.	.	16r	.	16r	.
.	.	.	.	16aa-\Jk	.	16fff\Jk	.
2DD-/	.	2D-/ 2d-/	.	(4.gg-\	.	(4.eee-\	.
.	.	.	.	8ff\)	.	8ddd-\)	.
=129	=129	=129	=129	=129	=129	=129	=129
4GG-/	.	8d-\L	.	8bb-\L	.	8ddd-\L	.
.	.	16r	.	16r	.	16r	.
.	.	16d-\Jk	.	16b-\Jk	.	16ddd-\Jk	.
2GG-/	.	(4.f\	.	(4.a-/	.	(4.bbn\	.
.	.	8g-\)	.	8g-/)	.	8bb-\)	.
=130	=130	=130	=130	=130	=130	=130	=130
8EEn/L	.	8Gn\L 8gn\	.	8gn\L	.	8bb-\L	.
16r	.	16r	.	16r	.	16r	.
16CC/Jk	.	16c\Jk	.	16een\Jk	.	16bb-\Jk	.
8FF/L	.	8c\L	.	8ff\L	.	8aa-\L	.
16r	.	16r	.	16r	.	16r	.
16F/Jk	.	16f\Jk	.	16ff\Jk	.	16ff\Jk	.
8D-/L	.	8d-\L	.	8dd-\L	.	8dd-\L	.
16r	.	16r	.	16r	.	16r	.
16C/Jk	.	16c\Jk	.	16cc\Jk	.	16cc\Jk	.
=131	=131	=131	=131	=131	=131	=131	=131
8BBn/L	.	8Bn/L	.	8bn\L	.	8bn\L	.
16r	.	16r	.	16r	.	16r	.
16C/Jk	.	16c/Jk	.	16cc\Jk	.	16cc\Jk	.
8DD-/L	.	8D-/L	.	8d-/L	.	8d-/L	.
16r	.	16r	.	16r	.	16r	.
16CC/Jk	.	16C/Jk	.	16c/Jk	.	16c/Jk	.
8CC/L	.	8C/L	.	8c/L	.	8c/L	.
16r	.	16r	.	16r	.	16r	.
16CC/Jk	.	16C/Jk	.	16c/Jk	.	16c/Jk	.
=132	=132	=132	=132	=132	=132	=132	=132
4r	.	4r	.	4r	.	16c/LK	.
.	.	.	.	.	.	16r	.
.	.	.	.	.	.	16c/Jk	.
.	.	.	.	.	.	(4.en/	.
2CC/	.	(4.G-/	.	(4.B-/	.	.	.
.	.	.	.	.	.	8f/)	.
.	.	8F/)	.	8A-/)	.	.	.
.	.	.	.	.	.	16r	.
=133	=133	=133	=133	=133	=133	=133	=133
4r	.	4r	.	4r	.	8c/L	.
.	.	.	.	.	.	16r	.
.	.	.	.	.	.	16c/Jk	.
2CC/	.	(4.B-/	.	(4.en/	.	(4.g/	.
.	.	8A-/)	.	8f/)	.	8a-/)	.
=134	=134	=134	=134	=134	=134	=134	=134
8BB-/L	ff	8F/L	ff	8d-/L	ff	8b-\L	ff
16r	.	16r	.	16r	.	16r	.
16BB-/Jk	.	16B-/Jk	.	16d-/Jk	.	16cc\Jk	.
4BB-/	.	4B-/	.	4d-/	.	4dd-\	.
4r	.	4r	.	4r	.	4r	.
=135	=135	=135	=135	=135	=135	=135	=135
8.GG/L	.	8.en\L	.	8.b-\L	.	8.dd-\L	.
16GG/Jk	.	16e\Jk	.	16b-\Jk	.	16een\Jk	.
4FF/	.	4a-\	.	4cc\	.	4ff\	.
4r	.	4r	.	4r	.	4r	.
=136	=136	=136	=136	=136	=136	=136	=136
8FF/L	.	4F/	.	4A-/	.	8ff\L	.
16r	.	.	.	.	.	16r	.
16EE-/Jk	.	.	.	.	.	16gg\Jk	.
8DD-/L	.	[2F/	.	[2A-/	.	8aa-\L	.
16r	.	.	.	.	.	16r	.
16DD-/Jk	.	.	.	.	.	16bb-\Jk	.
8DD-/L	.	.	.	.	.	[4ccc\	.
16r	.	.	.	.	.	.	.
16CC/Jk	.	.	.	.	.	.	.
=137	=137	=137	=137	=137	=137	=137	=137
8CC/L	.	8F/L]	.	8A-/L]	.	8ccc\L]	.
16r	.	16r	.	16r	.	16r	.
16C/Jk	.	16F/Jk	.	16a-/Jk	.	16aa-\Jk	.
8C/L	.	8F/L	.	8a-/L	.	8ff\L	.
16r	.	16r	.	16r	.	16r	.
16C/Jk	.	16F/Jk	.	16a-/Jk	.	16dd-\Jk	.
8C/L	.	8G/L	.	8b-\L	.	8cc\L	.
16r	.	16r	.	16r	.	16r	.
16C/Jk	.	16G/Jk	.	16cc\Jk	.	16een\Jk	.
=138	=138	=138	=138	=138	=138	=138	=138
8FF/L	.	4F/ 4A-/	.	8ff\L	.	8ff\L	.
16r	.	.	.	16r	.	16r	.
16EE-/Jk	.	.	.	16gg\Jk	.	16f\Jk	.
8EE-/L	.	[2F/ [2A-/	.	8aa-\L	.	8f/L	.
16r	.	.	.	16r	.	16r	.
16DD-/Jk	.	.	.	16bb-\Jk	.	16g/Jk	.
8DD-/L	.	.	.	[4ccc\	.	8a-/L	.
16r	.	.	.	.	.	16r	.
16CC/Jk	.	.	.	.	.	16b-/Jk	.
=139	=139	=139	=139	=139	=139	=139	=139
8CC/L	.	8F/L] 8A-/]	.	8ccc\L]	.	8cc\L	.
16r	.	16r	.	16r	.	16r	.
16C/Jk	.	16F/Jk 16A-/	.	16aa-\Jk	.	16a-\Jk	.
8C/L	.	8F/L 8A-/	.	8ff\L	.	8f/L	.
16r	.	16r	.	16r	.	16r	.
16CC/Jk	.	16F/Jk 16A-/	.	16dd-\Jk	.	16d-/Jk	.
8CC/L	.	8G/L 8B-/	.	8cc\L	.	8c/L	.
16r	.	16r	.	16r	.	16r	.
16CC/Jk	.	16C/Jk	.	16een\Jk	.	16en/Jk	.
=140	=140	=140	=140	=140	=140	=140	=140
8FF/L	.	8F/L	.	8ff\L	.	8f/L	.
16r	.	16r	.	16r	.	16r	.
16CC/Jk	.	16C/Jk	.	16cc\Jk	.	16c/Jk	.
4CC/	.	4C/	.	4cc\	.	4c/	.
4r	.	4r	.	4r	.	4r	.
=141	=141	=141	=141	=141	=141	=141	=141
8AA-/L	.	8A-/L	.	8aa-\L	.	8a-/L	.
16r	.	16r	.	16r	.	16r	.
16FF/Jk	.	16F/Jk	.	16ff\Jk	.	16f/Jk	.
4FF/	.	4F/	.	4ff\	.	4f/	.
4r	.	4r	.	4r	.	4r	.
=142	=142	=142	=142	=142	=142	=142	=142
8F\L	.	8f\L	.	8ff\L	.	8ff\L	.
16r	.	16r	.	16r	.	16r	.
16C\Jk	.	16c\Jk	.	16cc\Jk	.	16cc\Jk	.
4AA-'/	.	4A-'/	.	4a-'/	.	4a-'/	.
4C'/	.	4c'\	.	4cc'\	.	4cc'\	.
=143	=143	=143	=143	=143	=143	=143	=143
4FF'/	.	4F'/	.	4f'/	.	4f'/	.
2Bn\	.	2a-\	.	2f/	.	2ddn\	.
=144	=144	=144	=144	=144	=144	=144	=144
4G'\	.	4b-'\	.	4B-'/	.	4en'/	.
2GG/	.	2G/	.	2b-\	.	2bb-\	.
=145	=145	=145	=145	=145	=145	=145	=145
4E-'\	.	4e-'\	.	4g-'/	.	4an'/	.
2EE-;/	.	2E-;/	.	2gg-;\	.	2a;\ 2ggg-;\	.
=146	=146	=146	=146	=146	=146	=146	=146
*k[f#c#]	*k[f#c#]	*k[f#c#]	*k[f#c#]	*k[f#c#]	*k[f#c#]	*k[f#c#]	*k[f#c#]
2.DDn/	p	2.Dn/	p	2.dn/	p	8dn/L	p
.	.	.	.	.	.	8a/J	.
.	.	.	.	.	.	(8a/L	.
.	.	.	.	.	.	8f#/J	.
.	.	.	.	.	.	8dn/L	.
.	.	.	.	.	.	8a/J)	.
=147	=147	=147	=147	=147	=147	=147	=147
(2.D\	.	2.F#/ 2.d/	.	2.aa\	.	8r	.
.	.	.	.	.	.	8a'/	.
.	.	.	.	.	.	(8a/L	.
.	.	.	.	.	.	8f#/J	.
.	.	.	.	.	.	8dn/L	.
.	.	.	.	.	.	8a/J)	.
=148	=148	=148	=148	=148	=148	=148	=148
2.Cn/	.	2.F#/ 2.d/	.	(2.aa\	.	8r	.
.	.	.	.	.	.	8a'/	.
.	.	.	.	.	.	(8a/L	.
.	.	.	.	.	.	8f#/J	.
.	.	.	.	.	.	8d/L	.
.	.	.	.	.	.	8a/J)	.
=149	=149	=149	=149	=149	=149	=149	=149
2.BB/)	.	2.G/ 2.d/	.	2.bb\)	.	8r	.
.	.	.	.	.	.	8b'\	.
.	.	.	.	.	.	(8b/L	.
.	.	.	.	.	.	8g/J	.
.	.	.	.	.	.	8d/L	.
.	.	.	.	.	.	8b/J)	.
=150	=150	=150	=150	=150	=150	=150	=150
(2.FF#/	.	(2.D#/	.	(2.a\ 2.cccn\	.	8r	.
.	.	.	.	.	.	8ccn'\	.
.	.	.	.	.	.	(8cc\L	.
.	.	.	.	.	.	8a\J	.
.	.	.	.	.	.	8d#/L	.
.	.	.	.	.	.	8cc/J)	.
=151	=151	=151	=151	=151	=151	=151	=151
2.GG/	.	2.E/) 2.G/	.	2.bb\	.	8r	.
.	.	.	.	.	.	8b'\	.
.	.	.	.	.	.	(8b/L	.
.	.	.	.	.	.	8e/J	.
.	.	.	.	.	.	8G/L	.
.	.	.	.	.	.	8b/J)	.
=152	=152	=152	=152	=152	=152	=152	=152
2.AA/)	.	(2.F#/	.	2aa\	.	8r	.
.	.	.	.	.	.	8a'/	.
.	.	.	.	.	.	(8a/L	.
.	.	.	.	.	.	8f#/J	.
.	.	.	.	4ddd\	.	8dn/L	.
.	.	.	.	.	.	8a/J)	.
=153	=153	=153	=153	=153	=153	=153	=153
(2.AA/	.	4E/	.	4ccc#\	.	8r	.
.	.	.	.	.	.	8a'/	.
.	.	4G/)	.	4eee\)	.	(8a/L	.
.	.	.	.	.	.	8g/J	.
.	.	4A'/	.	4gg'\	.	8e/L	.
.	.	.	.	.	.	8a/J)	.
=154	=154	=154	=154	=154	=154	=154	=154
4DD/)	.	4A/	.	4ff#\	.	4a/	.
4r	.	4r	.	4r	.	(8aa\L	.
.	.	.	.	.	.	8ff#\J	.
4r	.	4r	.	4r	.	8bb\L	.
.	.	.	.	.	.	8gg\J)	.
=155	=155	=155	=155	=155	=155	=155	=155
2.r	.	2.r	.	2.r	.	(8aa\L	.
.	.	.	.	.	.	8ff#\J	.
.	.	.	.	.	.	8bb\L	.
.	.	.	.	.	.	8gg\J	.
.	.	.	.	.	.	8gg\L	.
.	.	.	.	.	.	8ee\J)	.
=156	=156	=156	=156	=156	=156	=156	=156
2.r	.	2.r	.	2.r	.	(8aa\L	.
.	.	.	.	.	.	8ff#\J	.
.	.	.	.	.	.	8ff#\L	.
.	.	.	.	.	.	8a\J	.
.	.	.	.	.	.	8gg\L	.
.	.	.	.	.	.	8b\J)	.
=157	=157	=157	=157	=157	=157	=157	=157
2.r	.	2.r	.	2.r	.	(8ee\L	.
.	.	.	.	.	.	8g\J	.
.	.	.	.	.	.	8cc#/L	.
.	.	.	.	.	.	8e/J	.
.	.	.	.	.	.	8dd/L	.
.	.	.	.	.	.	8f#/J)	.
=158	=158	=158	=158	=158	=158	=158	=158
2.DD/	.	2.D/	p	2.d/	p	(8d/L	p
.	.	.	.	.	.	8a/J	.
.	.	.	.	.	.	8a/L	.
.	.	.	.	.	.	8f#/J	.
.	.	.	.	.	.	8d/L	.
.	.	.	.	.	.	8a/J)	.
=159	=159	=159	=159	=159	=159	=159	=159
(2.D\	.	2.a\	.	2.d/ 2.f#/	.	8r	.
.	.	.	.	.	.	8a'/	.
.	.	.	.	.	.	(8a/L	.
.	.	.	.	.	.	8f#/J	.
.	.	.	.	.	.	8d/L	.
.	.	.	.	.	.	8a/J)	.
=160	=160	=160	=160	=160	=160	=160	=160
2.Cn/	.	(2.a\	.	(2.d/ 2.f#/	.	8r	.
.	.	.	.	.	.	8a'/	.
.	.	.	.	.	.	(8a/L	.
.	.	.	.	.	.	8f#/J	.
.	.	.	.	.	.	8d/L	.
.	.	.	.	.	.	8a/J)	.
=161	=161	=161	=161	=161	=161	=161	=161
2.BB/)	.	2.b\	.	2.d/) 2.g/	.	8r	.
.	.	.	.	.	.	8b'\	.
.	.	.	.	.	.	(8b/L	.
.	.	.	.	.	.	8g/J	.
.	.	.	.	.	.	8d/L	.
.	.	.	.	.	.	8b/J)	.
=162	=162	=162	=162	=162	=162	=162	=162
(2.F#\	.	2.d#\ 2.ccn\	.	(2.a/	.	8r	.
.	.	.	.	.	.	8ccn'\	.
.	.	.	.	.	.	(8cc\L	.
.	.	.	.	.	.	8a\J	.
.	.	.	.	.	.	8d#/L	.
.	.	.	.	.	.	8cc/J)	.
=163	=163	=163	=163	=163	=163	=163	=163
2.Fn\	.	2.dn\) 2.b\	.	2.g#/	.	8r	.
.	.	.	.	.	.	8g#'/	.
.	.	.	.	.	.	(8g#/L	.
.	.	.	.	.	.	8dn/J	.
.	.	.	.	.	.	8B/L	.
.	.	.	.	.	.	8g#/J)	.
=164	=164	=164	=164	=164	=164	=164	=164
2.BB/	.	2.G/ 2.d/	.	2.ffn\	.	8r	.
.	.	.	.	.	.	8gn'/	.
.	.	.	.	.	.	(8g/L	.
.	.	.	.	.	.	8fn/J	.
.	.	.	.	.	.	8d/L	.
.	.	.	.	.	.	8g/J)	.
=165	=165	=165	=165	=165	=165	=165	=165
2.Cn/)	.	2.G/	.	2.dd#\)	.	8r	.
.	.	.	.	.	.	8g'/	.
.	.	.	.	.	.	(8g/L	.
.	.	.	.	.	.	8d#/J	.
.	.	.	.	.	.	8cn/L	.
.	.	.	.	.	.	8g/J)	.
=166	=166	=166	=166	=166	=166	=166	=166
*k[b-e-a-]	*k[b-e-a-]	*k[b-e-a-]	*k[b-e-a-]	*k[b-e-a-]	*k[b-e-a-]	*k[b-e-a-]	*k[b-e-a-]
4C/	.	4G/	.	4ee-\	.	4g/	.
4r	.	4r	.	4r	.	(8gg\L	.
.	.	.	.	.	.	8ee-\J	.
4r	.	4r	.	4r	.	8aa-\L	.
.	.	.	.	.	.	8ff\J)	.
=167	=167	=167	=167	=167	=167	=167	=167
2.r	.	2.r	.	2.r	.	(8ff\L	.
.	.	.	.	.	.	8dd\J	.
.	.	.	.	.	.	8gg\L	.
.	.	.	.	.	.	8een\J	.
.	.	.	.	.	.	8ee\L	.
.	.	.	.	.	.	8cc\J)	.
=168	=168	=168	=168	=168	=168	=168	=168
2.BB-/	.	2.C/	.	2.c/	.	8r	.
.	.	.	.	.	.	8een'\	.
.	.	.	.	.	.	(8ee\L	.
.	.	.	.	.	.	8cc\J	.
.	.	.	.	.	.	8g\L	.
.	.	.	.	.	.	8ee\J)	.
=169	=169	=169	=169	=169	=169	=169	=169
2.BB-/	.	2.G/	.	2.g/	.	8r	.
.	.	.	.	.	.	8een'\	.
.	.	.	.	.	.	(8ee\L	.
.	.	.	.	.	.	8cc\J	.
.	.	.	.	.	.	8g\L	.
.	.	.	.	.	.	8ee\J)	.
=170	=170	=170	=170	=170	=170	=170	=170
(2.BB-/	.	(2.G/	.	(2.g/	.	8r	.
.	.	.	.	.	.	8een'\	.
.	.	.	.	.	.	(8ee\L	.
.	.	.	.	.	.	8cc\J	.
.	.	.	.	.	.	8g\L	.
.	.	.	.	.	.	8ee\J)	.
=171	=171	=171	=171	=171	=171	=171	=171
2.AAn/)	.	2.An/)	.	2.an/)	.	8r	.
.	.	.	.	.	.	8ff'\	.
.	.	.	.	.	.	(8ff\L	.
.	.	.	.	.	.	8cc\J	.
.	.	.	.	.	.	8an\L	.
.	.	.	.	.	.	8ff\J)	.
=172	=172	=172	=172	=172	=172	=172	=172
(2.FF-/	.	(2.B-/	.	(2.b-\	.	8r	.
.	.	.	.	.	.	8gg'\	.
.	.	.	.	.	.	(8gg\L	.
.	.	.	.	.	.	8cc#\J	.
.	.	.	.	.	.	8b-\L	.
.	.	.	.	.	.	8gg\J)	.
=173	=173	=173	=173	=173	=173	=173	=173
2.FF/	.	2.An/	.	2.an/	.	8r	.
.	.	.	.	.	.	8ff'\	.
.	.	.	.	.	.	(8ff\L	.
.	.	.	.	.	.	8dd\J	.
.	.	.	.	.	.	8an\L	.
.	.	.	.	.	.	8ff\J)	.
=174	=174	=174	=174	=174	=174	=174	=174
2.GG/)	.	2G/	.	2g/	.	8r	.
.	.	.	.	.	.	8een'\	.
.	.	.	.	.	.	(8ee\L	.
.	.	.	.	.	.	8cc\J	.
.	.	4c\	.	4cc\	.	8g\L	.
.	.	.	.	.	.	8ee\J)	.
=175	=175	=175	=175	=175	=175	=175	=175
(2.GG/	.	4c-\	.	4cc-\	.	8r	.
.	.	.	.	.	.	8ff'\	.
.	.	4d\)	.	4dd\)	.	(8ff\L	.
.	.	.	.	.	.	8dd\J	.
.	.	4F'/	.	4f'/	.	8g\L	.
.	.	.	.	.	.	8gg\J)	.
=176	=176	=176	=176	=176	=176	=176	=176
4C/)	.	4F-/	.	4f-/	.	4gg\	.
4r	.	4r	.	4r	.	(8gg\L	.
.	.	.	.	.	.	8een\J	.
4r	.	4r	.	4r	.	8aa-\L	.
.	.	.	.	.	.	8ff\J)	.
=177	=177	=177	=177	=177	=177	=177	=177
2.r	.	2.c\	pp	2.cc\	pp	(8aa-\L	.
.	.	.	.	.	.	8ff\J	.
.	.	.	.	.	.	8ff\L	.
.	.	.	.	.	.	8dd\J	.
.	.	.	.	.	.	8gg\L	.
.	.	.	.	.	.	8een\J)	.
=178	=178	=178	=178	=178	=178	=178	=178
4C/	.	2.r	.	2.r	.	4r	.
4r	.	.	.	.	.	(8bb-\L	.
.	.	.	.	.	.	8gg\J	.
4r	.	.	.	.	.	8ccc\L	.
.	.	.	.	.	.	8aa-\J)	.
=179	=179	=179	=179	=179	=179	=179	=179
2.r	.	2.c\	.	2.cc\	.	(8ccc\L	.
.	.	.	.	.	.	8aa-\J	.
.	.	.	.	.	.	8aa-\L	.
.	.	.	.	.	.	8ff\J	.
.	.	.	.	.	.	8bb-\L	.
.	.	.	.	.	.	8gg\J)	.
=180	=180	=180	=180	=180	=180	=180	=180
2.r	.	8d-\L	pp	8dd-\L	pp	2.r	.
.	.	16r	.	16r	.	.	.
.	.	16c\Jk	.	16cc\Jk	.	.	.
.	.	8c/L	.	8cc\L	.	.	.
.	.	16r	.	16r	.	.	.
.	.	16B-/Jk	.	16b-\Jk	.	.	.
.	.	4B-/	.	4b-\	.	.	.
=181	=181	=181	=181	=181	=181	=181	=181
8BB-/L	pp	2.r	.	2.r	.	2.bb-\	pp
16r	.	.	.	.	.	.	.
16AA-/Jk	.	.	.	.	.	.	.
8AA-/L	.	.	.	.	.	.	.
16r	.	.	.	.	.	.	.
16GG/Jk	.	.	.	.	.	.	.
4GG/	.	.	.	.	.	.	.
=182	=182	=182	=182	=182	=182	=182	=182
2.r	.	8G/L	.	8g/L	.	2.ccc-\	.
.	.	16r	.	16r	.	.	.
.	.	16F/Jk	.	16f/Jk	.	.	.
.	.	8F/L	.	8f/L	.	.	.
.	.	16r	.	16r	.	.	.
.	.	16En/Jk	.	16en/Jk	.	.	.
.	.	4E/	.	4e/	.	.	.
=183	=183	=183	=183	=183	=183	=183	=183
8FF-/L	.	4r	.	4r	.	2.ccc\	.
16r	.	.	.	.	.	.	.
16DD/Jk	.	.	.	.	.	.	.
8DD/L	.	8c\L	.	8f-/L	.	.	.
16r	.	16r	.	16r	.	.	.
16CC/Jk	.	16d\Jk	.	16fn/Jk	.	.	.
8CC/L	.	8d\L	.	8f/L	.	.	.
16r	.	16r	.	16r	.	.	.
16C/Jk	.	16f-\Jk	.	16g/Jk	.	.	.
=184	=184	=184	=184	=184	=184	=184	=184
*k[b-e-a-d-]	*k[b-e-a-d-]	*k[b-e-a-d-]	*k[b-e-a-d-]	*k[b-e-a-d-]	*k[b-e-a-d-]	*k[b-e-a-d-]	*k[b-e-a-d-]
*MM180	*MM180	*MM180	*MM180	*MM180	*MM180	*MM180	*MM180
4FF/ 4C/	f	8f/L	f	8a-\L	f	8ccc\L	f
.	.	16r	.	16r	.	16r	.
.	.	16F/Jk	.	16aa-\Jk	.	16ccc\Jk	.
2FF/ 2C/	.	(4.G/	.	(4.gg\	.	(4.bb-\	.
.	.	8A-/)	.	8ff\)	.	8aa-\)	.
=185	=185	=185	=185	=185	=185	=185	=185
4FFn/ 4C/	.	(4Dn/	.	8cc\L	.	8aa-\L	.
.	.	.	.	16r	.	16r	.
.	.	.	.	16cc\Jk	.	16aa-\Jk	.
2FF/ 2C/	.	4En/	.	(4.b-\	.	(4.gg\	.
.	.	4F/)	.	.	.	.	.
.	.	.	.	8a-/)	.	8ff\)	.
=186	=186	=186	=186	=186	=186	=186	=186
8B-\L	.	8d-\L	.	8g\L	.	8een\L	.
16r	.	16r	.	16r	.	16r	.
16B-\Jk	.	16d-\Jk	.	16een\Jk	.	16gg\Jk	.
(4.A-\	.	(4.c\	.	8ee\L	.	8gg\L	.
.	.	.	.	16r	.	16r	.
.	.	.	.	16ff\Jk	.	16aa-\Jk	.
.	.	.	.	8ff\L	.	8aa-\L	.
8G\)	.	8B-/)	.	16r	.	16r	.
.	.	.	.	16gg\Jk	.	16bb-\Jk	.
=187	=187	=187	=187	=187	=187	=187	=187
8G\L	.	8B-/L	.	8gg\L	.	8bb-\L	.
16r	.	16r	.	16r	.	16r	.
16G\Jk	.	16B-/Jk	.	16g\Jk	.	16b-\Jk	.
(4.F\	.	(4.A-/	.	8g/L	.	8b-\L	.
.	.	.	.	16r	.	16r	.
.	.	.	.	16a-/Jk	.	16cc\Jk	.
.	.	.	.	8a-/L	.	8cc\L	.
8En\)	.	8G/)	.	16r	.	16r	.
.	.	.	.	16b-/Jk	.	16dd-\Jk	.
=188	=188	=188	=188	=188	=188	=188	=188
8En\L	.	8G\L	.	8bb-\L	.	8ddd-\L	.
16r	.	16r	.	16r	.	16r	.
16en\Jk	.	16g\Jk	.	16bb-\Jk	.	16ddd-\Jk	.
8e\L	.	8g\L	.	(4.aa-\	.	(4.ccc\	.
16r	.	16r	.	.	.	.	.
16f\Jk	.	16a-\Jk	.	.	.	.	.
8f\L	.	8a-\L	.	.	.	.	.
16r	.	16r	.	8gg\)	.	8bb-\)	.
16g\Jk	.	16b-\Jk	.	.	.	.	.
=189	=189	=189	=189	=189	=189	=189	=189
8G/L	.	8b-\L	.	8gg\L	.	8bb-\L	.
16r	.	16r	.	16r	.	16r	.
16GG/Jk	.	16B-\Jk	.	16gg\Jk	.	16bb-\Jk	.
8GG/L	.	8B-/L	.	(4.ff\	.	(4.aa-\	.
16r	.	16r	.	.	.	.	.
16AA-/Jk	.	16c/Jk	.	.	.	.	.
8AA-/L	.	8c\L	.	.	.	.	.
16r	.	16r	.	8een\)	.	8gg\)	.
16BB-/Jk	.	16d-\Jk	.	.	.	.	.
=190	=190	=190	=190	=190	=190	=190	=190
8AA-\L	.	8c\L	.	8ff\L	.	8ff\L	.
16r	.	16r	.	16r	.	16r	.
16A-\Jk	.	16c\Jk	.	16ff\Jk	.	16aa-\Jk	.
(4.G\	.	(4.B-/	.	8ff\L	.	8aa-\L	.
.	.	.	.	16r	.	16r	.
.	.	.	.	16gg\Jk	.	16bb-\Jk	.
.	.	.	.	8gg\L	.	8bb-\L	.
8F\)	.	8A-/)	.	16r	.	16r	.
.	.	.	.	16aa-\Jk	.	16ccc\Jk	.
=191	=191	=191	=191	=191	=191	=191	=191
8AA-/L	.	8C/L 8c/	.	8cc\L	.	8ccc\L	.
16r	.	16r	.	16r	.	16r	.
16AA-/Jk	.	16C/Jk 16c/	.	16ddn\Jk	.	16dddn\Jk	.
(4.GG/	.	(4.C/ 4.B-/	.	8dd\L	.	8ddd\L	.
.	.	.	.	16r	.	16r	.
.	.	.	.	16een\Jk	.	16eeen\Jk	.
.	.	.	.	8ee\L	.	8eee\L	.
8FF/)	.	8C/) 8A-/	.	16r	.	16r	.
.	.	.	.	16ff\Jk	.	16fff\Jk	.
=192	=192	=192	=192	=192	=192	=192	=192
4DD-/	ff	4D-/ 4A-/	ff	8ff\L	ff	8fff\L	ff
.	.	.	.	16r	.	16r	.
.	.	.	.	16aa-\Jk	.	16fff\Jk	.
2DD-/	.	2D-/ 2d-/	.	(4.gg-\	.	(4.eee-\	.
.	.	.	.	8ff\)	.	8ddd-\)	.
=193	=193	=193	=193	=193	=193	=193	=193
4GG-/	.	8d-\L	.	8bb-\L	.	8ddd-\L	.
.	.	16r	.	16r	.	16r	.
.	.	16d-\Jk	.	16b-\Jk	.	16ddd-\Jk	.
2GG-/	.	(4.f\	.	(4.a-/	.	(4.ccc-\	.
.	.	8g-\)	.	8g-/)	.	8bb-\)	.
=194	=194	=194	=194	=194	=194	=194	=194
8EEn/L	.	8Gn\L 8gn\	.	8gn\L	.	8bb-\L	.
16r	.	16r	.	16r	.	16r	.
16CC/Jk	.	16c\Jk	.	16een\Jk	.	16bb-\Jk	.
8FF/L	.	8c\L	.	8ff\L	.	8aa-\L	.
16r	.	16r	.	16r	.	16r	.
16F/Jk	.	16f\Jk	.	16ff\Jk	.	16ff\Jk	.
8D-/L	.	8d-\L	.	8dd-\L	.	8dd-\L	.
16r	.	16r	.	16r	.	16r	.
16C/Jk	.	16c\Jk	.	16cc\Jk	.	16cc\Jk	.
=195	=195	=195	=195	=195	=195	=195	=195
8BBn/L	.	8Bn/L	.	8bn\L	.	8bn\L	.
16r	.	16r	.	16r	.	16r	.
16C/Jk	.	16c/Jk	.	16cc\Jk	.	16cc\Jk	.
8DD-/L	.	8D-/L	.	8d-/L	.	8d-/L	.
16r	.	16r	.	16r	.	16r	.
16CC/Jk	.	16C/Jk	.	16c/Jk	.	16c/Jk	.
8CC/L	.	8C/L	.	8c/L	.	8c/L	.
16r	.	16r	.	16r	.	16r	.
16CC/Jk	.	16C/Jk	.	16c/Jk	.	16c/Jk	.
=196	=196	=196	=196	=196	=196	=196	=196
4r	.	4r	.	4r	.	8c/L	.
.	.	.	.	.	.	16r	.
.	.	.	.	.	.	16c/Jk	.
2CC/	.	(4.G/	.	(4.B-/	.	(4.en/	.
.	.	8F/)	.	8A-/)	.	8f/)	.
=197	=197	=197	=197	=197	=197	=197	=197
4r	.	4r	.	4r	.	8c/L	.
.	.	.	.	.	.	16r	.
.	.	.	.	.	.	16c/Jk	.
2CC/	.	(4.B-/	.	(4.en/	.	(4.g/	.
.	.	8A-/)	.	8f/)	.	8a-/)	.
=198	=198	=198	=198	=198	=198	=198	=198
8BB-/L	ff	8F/L	ff	8d-/L	ff	8b-\L	ff
16r	.	16r	.	16r	.	16r	.
16BB-/Jk	.	16B-/Jk	.	16d-/Jk	.	16cc\Jk	.
4BB-/	.	4B-/	.	4d-/	.	4dd-\	.
4r	.	4r	.	4r	.	4r	.
=199	=199	=199	=199	=199	=199	=199	=199
8GG/L	.	8en\L	.	8b-\L	.	8dd-\L	.
16r	.	16r	.	16r	.	16r	.
16GG/Jk	.	16e\Jk	.	16b-\Jk	.	16een\Jk	.
4FF/	.	4a-\	.	4cc\	.	4ff\	.
4r	.	4r	.	4r	.	4r	.
=200	=200	=200	=200	=200	=200	=200	=200
8FF/L	.	4F/	.	4A-/	.	8ff\L	.
16r	.	.	.	.	.	16r	.
16EE-/Jk	.	.	.	.	.	16gg\Jk	.
8EE-/L	.	[2F/	.	[2A-/	.	8aa-\L	.
16r	.	.	.	.	.	16r	.
16DD-/Jk	.	.	.	.	.	16bb-\Jk	.
8DD-/L	.	.	.	.	.	[4ccc\	.
16r	.	.	.	.	.	.	.
16CC/Jk	.	.	.	.	.	.	.
=201	=201	=201	=201	=201	=201	=201	=201
8CC/L	.	8F/L]	.	8A-/L]	.	8ccc\L]	.
16r	.	16r	.	16r	.	16r	.
16C/Jk	.	16F/Jk	.	16a-/Jk	.	16aa-\Jk	.
8C/L	.	8F/L	.	8a-/L	.	8ff\L	.
16r	.	16r	.	16r	.	16r	.
16C/Jk	.	16F/Jk	.	16a-/Jk	.	16dd-\Jk	.
8C/L	.	8G/L	.	8b-\L	.	8cc\L	.
16r	.	16r	.	16r	.	16r	.
16C/Jk	.	16G/Jk	.	16cc\Jk	.	16een\Jk	.
=202	=202	=202	=202	=202	=202	=202	=202
8FF/L	.	4F/ 4A-/	.	8ff\L	.	8ff\L	.
16r	.	.	.	16r	.	16r	.
16EE-/Jk	.	.	.	16gg\Jk	.	16f\Jk	.
8EE-/L	.	[2F/ [2A-/	.	8aa-\L	.	8f/L	.
16r	.	.	.	16r	.	16r	.
16DD-/Jk	.	.	.	16bb-\Jk	.	16g/Jk	.
8DD-/L	.	.	.	[4ccc\	.	8a-/L	.
16r	.	.	.	.	.	16r	.
16CC/Jk	.	.	.	.	.	16b-/Jk	.
=203	=203	=203	=203	=203	=203	=203	=203
8CC/L	.	8F/L] 8A-/]	.	8ccc\L]	.	8cc\L	.
16r	.	16r	.	16r	.	16r	.
16C/Jk	.	16F/Jk 16A-/	.	16aa-\Jk	.	16a-\Jk	.
8C/L	.	8F/L 8A-/	.	8ff\L	.	8f/L	.
16r	.	16r	.	16r	.	16r	.
16CC/Jk	.	16F/Jk 16A-/	.	16dd-\Jk	.	16d-/Jk	.
8CC/L	.	8G/L 8B-/	.	8cc\L	.	8c/L	.
16r	.	16r	.	16r	.	16r	.
16CC/Jk	.	16C/Jk	.	16een\Jk	.	16en/Jk	.
=204	=204	=204	=204	=204	=204	=204	=204
8FF/L	.	8F/L	.	8ff\L	.	8f/L	.
16r	.	16r	.	16r	.	16r	.
16CC/Jk	.	16C/Jk	.	16cc\Jk	.	16c/Jk	.
4CC/	.	4C/	.	4cc\	.	4c/	.
4r	.	4r	.	4r	.	4r	.
=205	=205	=205	=205	=205	=205	=205	=205
8AA-/L	.	8A-/L	.	8aa-\L	.	8a-/L	.
16r	.	16r	.	16r	.	16r	.
16FF/Jk	.	16F/Jk	.	16ff\Jk	.	16f/Jk	.
4FF/	.	4F/	.	4ff\	.	4f/	.
4r	.	4r	.	4r	.	4r	.
=206	=206	=206	=206	=206	=206	=206	=206
8F\L	.	8f\L	.	8ff\L	.	8ff\L	.
16r	.	16r	.	16r	.	16r	.
16C\Jk	.	16c\Jk	.	16cc\Jk	.	16cc\Jk	.
4AA-'/	.	4A-'/	.	4a-'/	.	4a-'/	.
4C'/	.	4c'\	.	4cc'\	.	4cc'\	.
=207	=207	=207	=207	=207	=207	=207	=207
4FF'/	.	4F'/	.	4f'/	.	4f'/	.
4r	.	4r	.	4r	.	4r	.
4r	.	4r	.	4r	.	4r	.
==	==	==	==	==	==	==	==
*-	*-	*-	*-	*-	*-	*-	*-
!!!ENC: Craig Stuart Sapp
!!!END: 2004/09/11/
